events/images/award.svg

<?xml version="1.0" encoding="UTF-8" standalone="no"?>
<svg
   width="492"
   height="492"
   overflow="hidden"
   version="1.1"
   id="svg5"
   sodipodi:docname="award.svg"
   inkscape:version="1.4.3 (0d15f75, 2025-12-25)"
   xmlns:inkscape="http://www.inkscape.org/namespaces/inkscape"
   xmlns:sodipodi="http://sodipodi.sourceforge.net/DTD/sodipodi-0.dtd"
   xmlns="http://www.w3.org/2000/svg"
   xmlns:svg="http://www.w3.org/2000/svg">
  <defs
     id="defs5" />
  <sodipodi:namedview
     id="namedview5"
     pagecolor="#ffffff"
     bordercolor="#000000"
     borderopacity="0.25"
     inkscape:showpageshadow="2"
     inkscape:pageopacity="0.0"
     inkscape:pagecheckerboard="0"
     inkscape:deskcolor="#d1d1d1"
     inkscape:zoom="0.6875"
     inkscape:cx="245.81818"
     inkscape:cy="246.54545"
     inkscape:window-width="2108"
     inkscape:window-height="1236"
     inkscape:window-x="0"
     inkscape:window-y="25"
     inkscape:window-maximized="0"
     inkscape:current-layer="g5" />
  <g
     id="g5"
     transform="translate(-394,-114)">
    <path
       d="M 394,270.043 C 394,183.863 463.863,114 550.043,114 H 729.957 C 816.137,114 886,183.863 886,270.043 V 449.957 C 886,536.137 816.137,606 729.957,606 H 550.043 C 463.863,606 394,536.137 394,449.957 Z"
       fill="#fceebd"
       fill-rule="evenodd"
       id="path1" />
    <g
       id="g4">
      <g
         id="g3">
        <g
           id="g2">
          <path
             d="m 738.044,354.094 c -13.781,14.175 -26.775,23.231 -55.125,26.381 7.481,-7.481 16.143,-14.962 23.625,-24.019 3.15,-3.543 9.056,-11.418 9.056,-11.812 6.694,-11.025 10.631,-23.625 10.631,-37.407 V 256.05 h 27.563 v 59.85 c 0.394,0.788 1.181,20.475 -15.75,38.194 z m -195.694,0 C 525.025,336.375 525.812,316.688 525.812,315.9 v -60.244 h 27.563 v 51.188 c 0,13.781 3.937,26.381 10.631,37.406 0,0.394 5.906,8.663 9.056,11.812 7.876,9.057 16.144,16.538 23.626,24.019 -27.563,-3.15 -40.951,-12.206 -54.338,-25.987 z M 777.812,314.719 V 232.031 H 726.625 V 204.469 H 640 553.375 v 27.562 h -51.187 v 82.294 c 0,3.938 0,31.106 22.443,55.125 21.656,22.838 48.038,34.65 94.106,35.438 3.544,5.906 5.513,12.599 5.513,19.687 v 51.188 h -19.688 c -8.662,0 -15.75,7.087 -15.75,15.75 h -19.687 c -8.662,0 -15.75,7.087 -15.75,15.75 v 7.875 h 173.25 v -7.875 c 0,-8.663 -7.088,-15.75 -15.75,-15.75 h -19.687 c 0,-8.663 -7.088,-15.75 -15.75,-15.75 H 655.75 v -50.794 c 0,-7.088 1.969,-13.781 5.513,-19.688 46.068,-0.787 72.45,-12.993 94.106,-35.437 22.443,-23.625 22.443,-51.188 22.443,-55.125 z"
             fill="#00883a"
             id="path2" />
        </g>
      </g>
    </g>
  </g>
</svg>

<svg width="1280" height="720" xmlns="http://www.w3.org/2000/svg" xmlns:xlink="http://www.w3.org/1999/xlink" overflow="hidden"><g><rect x="0" y="0" width="1280" height="720" fill="#FFFFFF"/><path d="M394 270.043C394 183.863 463.863 114 550.043 114L729.957 114C816.137 114 886 183.863 886 270.043L886 449.957C886 536.137 816.137 606 729.957 606L550.043 606C463.863 606 394 536.137 394 449.957Z" fill="#FCEEBD" fill-rule="evenodd"/><g><g><g><path d="M738.044 354.094C724.263 368.269 711.269 377.325 682.919 380.475 690.4 372.994 699.062 365.513 706.544 356.456 709.694 352.913 715.6 345.038 715.6 344.644 722.294 333.619 726.231 321.019 726.231 307.237L726.231 256.05 753.794 256.05 753.794 315.9C754.188 316.688 754.975 336.375 738.044 354.094ZM542.35 354.094C525.025 336.375 525.812 316.688 525.812 315.9L525.812 255.656 553.375 255.656 553.375 306.844C553.375 320.625 557.312 333.225 564.006 344.25 564.006 344.644 569.912 352.913 573.062 356.062 580.938 365.119 589.206 372.6 596.688 380.081 569.125 376.931 555.737 367.875 542.35 354.094ZM777.812 314.719 777.812 232.031 726.625 232.031 726.625 204.469 640 204.469 553.375 204.469 553.375 232.031 502.188 232.031 502.188 314.325C502.188 318.263 502.188 345.431 524.631 369.45 546.287 392.288 572.669 404.1 618.737 404.888 622.281 410.794 624.25 417.487 624.25 424.575L624.25 475.763 604.562 475.763C595.9 475.763 588.812 482.85 588.812 491.513L569.125 491.513C560.463 491.513 553.375 498.6 553.375 507.263L553.375 515.138 726.625 515.138 726.625 507.263C726.625 498.6 719.537 491.513 710.875 491.513L691.188 491.513C691.188 482.85 684.1 475.763 675.438 475.763L655.75 475.763 655.75 424.969C655.75 417.881 657.719 411.188 661.263 405.281 707.331 404.494 733.713 392.288 755.369 369.844 777.812 346.219 777.812 318.656 777.812 314.719Z" fill="#00883A"/></g></g></g></g></svg>
